web/public/rr_logo_dark.svg

<svg fill="none" height="360" viewBox="0 0 602 360" width="602" xmlns="http://www.w3.org/2000/svg"><g fill="#fff"><path d="m480.96 180c0 16.572-6.721 31.572-17.603 42.42-10.882 10.86-25.912 17.58-42.517 17.58s-31.635 6.708-42.505 17.568c-10.882 10.86-17.615 25.86-17.615 42.432s-6.721 31.572-17.603 42.42c-10.882 10.86-25.912 17.58-42.517 17.58s-31.635-6.72-42.505-17.58c-10.882-10.848-17.615-25.848-17.615-42.42s6.733-31.572 17.615-42.432c10.87-10.86 25.9-17.568 42.505-17.568s31.635-6.72 42.517-17.58c10.882-10.848 17.603-25.848 17.603-42.42 0-33.144-26.91-60-60.12-60-16.605 0-31.635-6.72-42.505-17.58-10.882-10.848-17.615-25.848-17.615-42.42s6.733-31.572 17.615-42.432c10.87-10.86 25.9-17.568 42.505-17.568 33.21 0 60.12 26.856 60.12 60 0 16.572 6.733 31.572 17.615 42.42 10.87 10.86 25.9 17.58 42.505 17.58 33.21 0 60.12 26.856 60.12 60z"/><path d="m240.48 180c0-33.138-26.917-60-60.12-60s-60.12 26.862-60.12 60c0 33.137 26.917 60 60.12 60s60.12-26.863 60.12-60z"/><path d="m120.24 300c0-33.137-26.9166-60-60.12-60s-60.12 26.863-60.12 60c0 33.138 26.9166 60 60.12 60s60.12-26.862 60.12-60z"/><path d="m601.2 300c0-33.137-26.917-60-60.12-60s-60.12 26.863-60.12 60c0 33.138 26.917 60 60.12 60s60.12-26.862 60.12-60z"/></g></svg>

<svg width="602" height="360" viewBox="0 0 602 360" fill="none" xmlns="http://www.w3.org/2000/svg">
<path d="M480.96 180C480.96 196.572 474.239 211.572 463.357 222.42C452.475 233.28 437.445 240 420.84 240C404.235 240 389.205 246.708 378.335 257.568C367.453 268.428 360.72 283.428 360.72 300C360.72 316.572 353.999 331.572 343.117 342.42C332.235 353.28 317.205 360 300.6 360C283.995 360 268.965 353.28 258.095 342.42C247.213 331.572 240.48 316.572 240.48 300C240.48 283.428 247.213 268.428 258.095 257.568C268.965 246.708 283.995 240 300.6 240C317.205 240 332.235 233.28 343.117 222.42C353.999 211.572 360.72 196.572 360.72 180C360.72 146.856 333.81 120 300.6 120C283.995 120 268.965 113.28 258.095 102.42C247.213 91.572 240.48 76.572 240.48 60C240.48 43.428 247.213 28.428 258.095 17.568C268.965 6.708 283.995 0 300.6 0C333.81 0 360.72 26.856 360.72 60C360.72 76.572 367.453 91.572 378.335 102.42C389.205 113.28 404.235 120 420.84 120C454.05 120 480.96 146.856 480.96 180Z" fill="white"/>
<path d="M240.48 180C240.48 146.862 213.563 120 180.36 120C147.157 120 120.24 146.862 120.24 180C120.24 213.137 147.157 240 180.36 240C213.563 240 240.48 213.137 240.48 180Z" fill="white"/>
<path d="M120.24 300C120.24 266.863 93.3234 240 60.12 240C26.9166 240 0 266.863 0 300C0 333.138 26.9166 360 60.12 360C93.3234 360 120.24 333.138 120.24 300Z" fill="white"/>
<path d="M601.2 300C601.2 266.863 574.283 240 541.08 240C507.877 240 480.96 266.863 480.96 300C480.96 333.138 507.877 360 541.08 360C574.283 360 601.2 333.138 601.2 300Z" fill="white"/>
</svg>
